X:1
T:Intermezzo
T:Intermezzo
T:Op. 118 No. 2
T: Johannes Brahms
C:Johannes Brahms
%%score { ( 1 2 ) | ( 3 4 5 ) }
L:1/8
Q:1/4=75
M:3/4
K:A
V:1 treble nm="Piano" snm="Pno."
V:2 treble 
V:3 bass 
V:4 bass 
V:5 bass 
V:1
"^Andante teneramente"!p! (cB) | [Fd]4 (cB) | !arpeggio![Fa]4!<(! ((A>B)) | (B>e)!<)!!>(! e2 d2 | %4
 A2!>)! G2!p! (c"_dolce"B) | [Ad]4 (cB) | a4!<(! ((c>^d) | %7
 (^d>e)!<)!!>(! e2!ped! [A,^DF]2!ped-up! | [A,^DA]2 [G,EG]2)!>)!!pp! (cB) | [Fd]4 (cB) | %10
 !arpeggio![Fa]4!<(! (([FA]>[=FB])) | ([=FB]>[Ee])!<)! [Ee]2!>(! [^Fd]2 | %12
 (A2 G2)!>)! (c"_dolce"B) | [Ad]4 (cB) | a4!<(! (((([Gc]>[FB^d])))) | %15
 [FB^d]>[E^Be]!<)! [Ee]2!>(! (^DA) | ([A,^DA]2!>)! [G,EG]2)!p!!<(! (E2!<)! | %17
!>(! F2 E2)!>)!!<(! (E2!<)! |!>(! F2!>)! E2) (E2- | B2!<(! A2!<)! G2- |!>(! [GB]2!>)! E2)!<(! (A2 | %21
!>(! B2!<)!!>)! A2)!<(! (A2!<)! |!>(! =c2!>)! A2) A2 | (^f2 =c3 A) | (G4 FE) |"^legato" (G4 A2 | %26
 ^A4 ^GF | B4 ^B2 |!<(! c4 BA- | [Ad]3) (c2 B)!<)! |!f! !arpeggio![Fa]4"_espress." [A,EA]2 | %31
 (G2 F2) (ED) | (C2 B,2)!p!"_dim." A2 | (=G2 =F2)"^calando"!>(! (ED) | %34
 (=C2 B,2)!>)!"_dolce" (^ga) |!<(! [d^f]4!<)! (ga) |!<(! B4!<)! (B>c) |!<(! (c>d) (dcdG)!<)! | %38
 (G2 A2)"^cresc."!<(! (A2!<)! |"^un poco animato"!>(! B2!>)! A2)!<(! (A2!<)! | %40
!>(! B2!>)! A2) ((A2 | d2)) (c3 B) | (G2 A2) (A2 | B2 A2)!<(! (A2 | B2 A2) (A2!<)! | %45
 f2)"^rit.         -          -          -"[Q:1/4=75] (d3[Q:1/4=66]"^.7"!>(! B)[Q:1/4=72]"^.2"[Q:1/4=69]"^.4" | %46
[Q:1/4=63]"^.9" (G2[Q:1/4=58]"^.3" A2)!>)![Q:1/4=52]"^.8"!p! !>!E2-[Q:1/4=50][Q:1/4=61]"^.1"[Q:1/4=55]"^.6" | %47
 E4 !>!E2- | E4!p! (c2- |:[Q:1/4=75]"^in tempo" cf e2 d2 | c2 Bdgf | B2 Acfe | AGedBG) | %53
!<(! ([Ac]a!<)!!>(! g2 f2)!>)! | (e2 Aced | c2 FG!>(!AF | %56
 [C^E]2[Q:1/4=75] G3!>)![Q:1/4=63]"^.8" (c-)[Q:1/4=72]"^.5"[Q:1/4=70][Q:1/4=67]"^.5" :| %57
[Q:1/4=60]"^più lento"!pp! cf"_legato" [^E^A^e]2 [^DA^d]2 | [C^Ac]2 [FAf]2 [^EA^e]2 | %59
 [^D^A^d]2 [CAc]2 [=C_G_B=c-]2 |"_rit.  -         -         -" [=F=Ac]2 ^c4- | %61
!pp! c)(f [^E^A^e]2 [^D=A^d]2 | [CGc]2 [FG^Bf]2 [^EGc^e]2 | %63
"_rit. -      -      -      -"[Q:1/4=60] [^D=B^d]2[Q:1/4=56]"^.7" c4-[Q:1/4=53] | %64
[Q:1/4=50] c2)[Q:1/4=46]"^.7" !fermata!c3[Q:1/4=41]"^.7""_espress.""_tre corde" z | %65
[Q:1/4=75]"^Tempo primo" z2!p! (c2"_cresc." f2 | e2 d2) z2 | d2 c2 z2 | c2 B2 z2 |!f! (cc'bagf | %70
 e2) (Aced) | c2 (F^AcB) | (=AFD^B,C[I:staff +1]^E,) |[I:staff -1] z2 (3z!>(! (A,C (3FAc)!>)! | %74
!p! ([Ee]2[Q:1/4=75] [Dd]2)[Q:1/4=68] z2[Q:1/4=72]"^.7"[Q:1/4=70]"^.3"[Q:1/4=65]"^.7"[Q:1/4=63]"^.3" | %75
[Q:1/4=61] (D2[Q:1/4=54] C2)[Q:1/4=47] x2[Q:1/4=51]"^.7"[Q:1/4=49]"^.3"[Q:1/4=44]"^.7"[Q:1/4=42]"^.3" | %76
[Q:1/4=75]"_dolce" !fermata!c3 B!pp! (cB) | [Fd]4 (cB) | !arpeggio![Fa]4 ([Bg]>[Af]) | %79
 ([Af]>[G=f]) ([Gf][Ae][^Fd][DB]) |!>(! A2 G2!>)! (c"_dolce"B) | [Ad]4 (cB) | (b3 ag>f) | %83
 (f>e)!>(! ([^Be]c) ([Ec][^DF])!>)! |"^espress." ([A,^DA]2 [G,EG]2)!<(! (E2!<)! | %85
!>(! F2 E2)!>)!!<(! (E2!<)! |!>(! F2!>)! E2) (E2- | B2!<(! A2!<)! G2- |!>(! [GB]2!>)! E2)!<(! (A2 | %89
!>(! B2!<)!!>)! A2)!<(! (A2!<)! |!>(! =c2!>)! A2) A2 | (^f2 =c3 A) | (G4 FE) |"^legato" (G4 A2 | %94
 ^A4 ^GF | B4 ^B2 |!<(! c4 BA- | [Ad]3) (c2 B)!<)! |!f! !arpeggio![Fa]4"_espress." [A,EA]2 | %99
 (G2 F2) (ED) | (C2 B,2)!p!"_dim." A2 | (=G2 =F2)"^calando"!>(! (ED) | %102
 (=C2 B,2)!>)!"_dolce" (^ga) |!<(! [d^f]4!<)! (ga) |!<(! B4!<)! (B>c) |!<(! (c>d) (dcdG)!<)! | %106
 (G2 A2)"^cresc."!<(! (A2!<)! |"^un poco animato"!>(! B2!>)! A2)!<(! (A2!<)! | %108
!>(! B2!>)! A2) ((A2 | d2)) (c3 B) | (G2 A2) (A2 | B2 A2)!<(! (A2 | B2 A2) (A2!<)! | %113
 f2)"^rit.        -         -         -"[Q:1/4=75] (d3[Q:1/4=67]"^.5"!>(! B)[Q:1/4=72]"^.5"[Q:1/4=70] | %114
[Q:1/4=65] (G2[Q:1/4=60] A2)!>)![Q:1/4=55]"^più lento"!p! !>!E2-[Q:1/4=62]"^.5"[Q:1/4=57]"^.5" | %115
 E4 !>!E2- | E4 x2 |] %117
V:2
 AG | (FD)[I:staff +1](A,F,)[I:staff -1] AG | F4 F2 | [EG]2 [EA]2 F2 | C2 B,2 E2 | %5
 (AD)[I:staff +1](A,F,)[I:staff -1] [EA]2 | [ABf]4 [FB]2 | [FB]2 [Ec]2[I:staff +1] B,,2 | %8
[I:staff -1] x4 AG | (FD)[I:staff +1](A,F,)[I:staff -1] AG | F4 A2 | G2 GA x2 | C2 B,2 E2 | %13
 (AD)[I:staff +1](A,F,)[I:staff -1] [EA]2 | [ABf]4 x2 | x2 ^Bc [A,^D]2 | x4 [=G,=C]2- | %17
 [G,C]4 [=G,^C]2- | [G,C]4 [^G,D-]2 | [DE]2 [DE]2 [DE]2 | D4 [=C=F]2- | [CF]4 [=C^D]2- | %22
 [CD]4 [=C^F]2 | x6 | x6 | (GB,G,[I:staff +1]E,=CA,) |[I:staff -1] (^A^C^A,[I:staff +1]E,EC) | %27
[I:staff -1] (BDB,[I:staff +1]E,^D^B,) |[I:staff -1] (cEC[I:staff +1]E,=GC) |[I:staff -1] x3 ^G3 | %30
 x4 x2 | [A,B,]4[I:staff +1] [E,A,]2 | [F,A,]4[I:staff -1] [A,E]2 | [A,B,]4[I:staff +1] [E,A,]2 | %34
 [=F,A,]4[I:staff -1] A2- | (AG!>(!AF)!>)! e2 | (FG!>(!AF)!>)! [EA]2 | [EG]2 [DF]2 [DE]2 | %38
 D2 C2 [CF-]2 | F4 [DF]2- | [DF]4 (([DF]2 | [FA]2)) [EG]4 | D2 C2 [CF]2- | [CF]4 [DF]2- | %44
 [DF]4 [DF]2 | x6 | [CE]4 (C"^più lento"B,) | D4 (CB,) | A4 x2 |: x6 | x6 | x6 | x6 | x6 | %54
 (.G2 .F2) z2 | (.E2 .^D2) z2 | x6 :| [F^A]2 x4 | x6 | x6 | x2 ^C-^E-^A^G | F2 x4 | x6 | %63
 x2 [CGBc]2"^.3" [CFB]2 | [CF^A]2 [C^EG]3 C- | CF[I:staff +1] =E2 =D2 | C2 (B,[I:staff -1]DAG) | %67
[I:staff +1] B,2 (A,[I:staff -1]CGF) |[I:staff +1] (A,G,[I:staff -1]EDB,G,) | x6 | G2 F2 z2 | %71
 E2 D2 z2 | C2 A,2 G,2 | x6 | A4 x2 | A,4 x2 | [^DFA]4 [=DG]2 | %77
 (FD)[I:staff +1](A,F,)[I:staff -1] AG | x6 | x6 | (C2 B,2) E2 | %81
 (AD)[I:staff +1](A,F,)[I:staff -1] [EA]2 | [ABf]2!<(! [AB^d]2 [Gc]>[F=d] | %83
 [FB^d]>[E^B]!<)! E2 x2 | x4 [=G,=C]2- | [G,C]4 [=G,^C]2- | [G,C]4 [^G,D-]2 | [DE]2 [DE]2 [DE]2 | %88
 D4 [=C=F]2- | [CF]4 [=C^D]2- | [CD]4 [=C^F]2 | x6 | x6 | (GB,G,[I:staff +1]E,=CA,) | %94
[I:staff -1] (^A^C^A,[I:staff +1]E,EC) |[I:staff -1] (BDB,[I:staff +1]E,^D^B,) | %96
[I:staff -1] (cEC[I:staff +1]E,=GC) |[I:staff -1] x3 ^G3 | x4 x2 | [A,B,]4[I:staff +1] [E,A,]2 | %100
 [F,A,]4[I:staff -1] [A,E]2 | [A,B,]4[I:staff +1] [E,A,]2 | [=F,A,]4[I:staff -1] A2- | %103
 (AG!>(!AF)!>)! e2 | (FG!>(!AF)!>)! [EA]2 | [EG]2 [DF]2 [DE]2 | D2 C2 [CF-]2 | F4 [DF]2- | %108
 [DF]4 (([DF]2 | [FA]2)) [EG]4 | D2 C2 [CF]2- | [CF]4 [DF]2- | [DF]4 [DF]2 | x6 | [CE]4 (CB,) | %115
 D4 (CB,) | !fermata!A4 x2 |] %117
V:3
 [A,,E,]2 | A,,,2 x2 [A,,D,]2 | (A,,,D,)(A,,F,,) (D,,D,) | ([D,E,G,]B,) ([C,E,]A,) (B,,,D,) | %4
 (E,,E,) (E,F,) =G,2 | F,,2 x2 E,,2 | (^D,,B,,) ([^D,F,]B,) ([A,,B,,]A,) | %7
 ([G,,B,,]G,) ([A,,F,]A,) (B,,F,) | E,,4 A,,2 | A,,,2 x2 [A,,D,]2 | (A,,,D,)(A,,F,,) (D,,D,) | %11
 ([D,=F,G,]B,) ([C,E,B,]A,) (B,,,D,) | (((E,,E,))) (E,F,) =G,2 | F,,2 x2 E,,2 | %14
 (^D,,B,,) ([^D,F,]B,) ([A,,B,,]A,) | ([G,,B,,]G,) ([A,,F,]A,) (B,,F,) | E,,B,,E,B,, (E,,=G,, | %17
 =C,E,C,=G,,) (E,,G,, |C,E,C,=G,,) [E,,B,,]E, | ^G,2 A,2 B,2 | A,,E,G,E, (A,,=C, | %21
=F,A,F,=C,) (=F,,C, | ^D,"^cresc."A,D,=C,) (^D,,C, | A,^D,A,=CFC) | (A,=CA,E,=C,A,,) | E,,2 x4 | %26
 E,,2 x4 | E,,2 x4 |!<(! E,,2 x4 | F,,2 x4 | (D,,F,[D,A,][F,D])!<)! (C,,B,,, | D,,4) (C,,B,,, | %32
 D,,4) (C,,B,,, | D,,4) (=C,,B,,, | D,,4) [^C,E,A,E]2 | [D,,A,,]2 ([D,F,]A,) [C,E,A,E]2 | %36
 [^D,,B,,]2 ([^D,F,]B,) (E,,E,) | [E,G,]C [B,,F,]B, [E,,B,,]E, | (A,,E,A,G,) (F,A, | %39
CA,F,E,) (D,F, |A,F,D,C,) (B,,D, |F,A,) (E,G,B,D) | A,,2 x2 (F,,C, |A,C,F,,E,,) (D,,A,, | %44
 F,A,,D,,C,, (B,,,B,,) | D,F,A,DFD) | (E,,C,E,A,) E,,,2 | (E,,,E,,A,,D,) E,,D, | %48
 !arpeggio![A,,,C,]4 z2 |: x2 (C2 F2 |!>(! .E2!>)! .D2) z2 | (.D2 .C2) z2 |!>(! (.C2!>)! .B,2) z2 | %53
 z2 C2 A2 | (3(D,,A,,D,(3F,A,D,) (3(F,,D,A,) | (3(G,,E,G,) (3(G,,^D,F,(3^B,F,D,) | %56
 (3(C,,G,,C,"^rit."(3^E,G,=B, ^E) z :|"_una corda" ([F,,C,^A,]2 [C,A,C]2 [F,A,F]2 | %58
 [^E,^A,^E]2 [^D,A,^D]2 [C,A,C]2 | [F,^A,F]2 [^E,A,^E]2 [_E,_G,_B,_E]2 | %60
 [=F,=A,=C]2 [^A,,^E,^A,]2 [^C,E,=B,]2) | ([F,,C,^A,]2 [C,A,C]2 [F,=A,F]2 | %62
 [^E,G,^E]2 [^D,G,^D]2 [C,G,C]2 | [F,G,=B,F]2 [^E,G,B,^E]2 [^D,F,^D]2 | %64
 [C,F,C]2 !fermata![C,^E,G,B,]3) z | (3F,,C,A, (3(EA,F,) (3(DA,F,) | %66
 (3(CA,F,) (3(B,F,B,, (3B,,,B,,D,) | (3(B,F,C,) (3(A,F,A,, (3A,,,A,,C,) | %68
 [B,,D,]2 (3(G,,B,F,) (3(C,,^E,C,) | (3(F,,C,A, (3CA,F, (3A,F,C,) | %70
 (3(D,,A,,D, (3F,A,D, (3F,^A,D,) | (3(B,,,F,,B,, (3D,F,B,, (3D,=G,B,,) | %72
 (3(C,,C,A,, (3F,C,C,,) (3(^E,B,,C,,) | F,,4 z2 | %74
 [F,A,]2"^rit.        -         -         -         -         -" (3z (F,,A,,(3D,F,[I:staff -1]A,-) | %75
[I:staff +1] E,,2- (3E,,(E,A, (3C[I:staff -1]EA-) |[I:staff +1] !fermata!E,4- [A,,E,]2 | %77
 A,,,2 x2 [A,,D,]2 | (A,,,D,)(A,,F,,) (D,,D,) | ([F,A,][G,B,]) ([G,B,][A,C]) B,,,D, | %80
 (E,,E,) (E,F,) =G,2 | F,,2 x2 E,,2 | ([^D,,B,,]^D,) ([F,,B,,]F,) ([A,,B,,]B,) | B,,E, E,F, F,A, | %84
 E,,B,,E,B,, (E,,=G,, | =C,E,C,=G,,) (E,,G,, | C,E,C,=G,,) [E,,B,,]E, | ^G,2 A,2 B,2 | %88
 A,,E,G,E, (A,,=C, |=F,A,F,=C,) (=F,,C, |^D,"^cresc."A,D,=C,) (^D,,C, | A,^D,A,=CFC) | %92
 (A,=CA,E,=C,A,,) | E,,2 x4 | E,,2 x4 | E,,2 x4 |!<(! E,,2 x4 | F,,2 x4 | %98
 (D,,F,[D,A,][F,D])!<)! (C,,B,,, | D,,4) (C,,B,,, | D,,4) (C,,B,,, | D,,4) (=C,,B,,, | %102
 D,,4) [^C,E,A,E]2 | [D,,A,,]2 ([D,F,]A,) [C,E,A,E]2 | [^D,,B,,]2 ([^D,F,]B,) (E,,E,) | %105
 [E,G,]C [B,,F,]B, [E,,B,,]E, | (A,,E,A,G,) (F,A, |CA,F,E,) (D,F, |A,F,D,C,) (B,,D, | %109
F,A,) (E,G,B,D) | A,,2 x2 (F,,C, | A,C,F,,E,,) (D,,A,, | F,A,,D,,C,, (B,,,B,,) | D,F,A,DFD) | %114
 (E,,C,E,A,) E,,,2 | (E,,,E,,A,,D,) E,,D, | !arpeggio!!fermata![A,,,C,]4 x2 |] %117
V:4
 x x | x x x x x x | x6 | x6 | x2 E,2 E,2 | x6 | x6 | x6 | (E,, B,,2) E,- E,2 | x6 | x6 | x6 | %12
 x2 E,2 E,2 | x6 | x6 | x6 | E,,4 E,,2- | E,,4 E,,2- | E,,4 (E,,2 | G,E,A,E,B,E, | A,,4) A,,2- | %21
 A,,4 =F,,2- | F,,4 ^D,,2 | x6 | x6 | x6 | x6 | x6 | x6 |[I:staff -1] (AD[I:staff +1]A,E,,E,^G,) | %30
 x4 A,,2- | A,, A,,2 A,,- A,,2- | A,, A,,2 A,,- A,,2- | A,, A,,2 A,,- A,,2- | %34
 A,, A,,2 A,,[I:staff -1] e2 |[I:staff +1] x4[I:staff -1] A2- | A2 x4 | x6 | %38
[I:staff +1] A,,4 A,,2- | A,,4 A,,2- | A,,4 A,,2- | A,,2 A,,4 | (A,,E,A,G,,) F,,2 | x4 D,,2 | %44
 x4 B,,,2 | x6 | x4 G,2 | [F,A,]4 E,,2 | A,4 x2 |: (3F,,C,A, (3CA,F,(3FA,F, | %50
 (3(EA,F, (3DA,F,(3B,,F,A,) | (3(D!>(!A,F,!>)! (3CA,F,(3C,E,A,) | (3(CF,D, (3B,F,G,,(3C,^E,B,) | %53
 (3(F,,A,F, (3CA,F,(3AA,F,) | x6 | x6 | x6 :| x6 | x6 | x6 | x2[I:staff -1] ^C2 [CE]2 | x6 | x6 | %63
 x6 | x6 | x6 | x6 | x6 | x6 |[I:staff +1] z2 C[I:staff -1]cBA | x6 | x6 | x6 | %73
[I:staff +1] ([B,,G,]2 [A,,F,]2) x2 | x6 | x6 | x6 | x x x x x x | x6 | D,2 C,2 x2 | x2 E,2 E,2 | %81
 x6 | x6 | G,,2 A,,2 B,,2 | E,,4 E,,2- | E,,4 E,,2- | E,,4 (E,,2 | G,E,A,E,B,E, | A,,4) A,,2- | %89
 A,,4 =F,,2- | F,,4 ^D,,2 | x6 | x6 | x6 | x6 | x6 | x6 |[I:staff -1] (AD[I:staff +1]A,E,,E,^G,) | %98
 x4 A,,2- | A,, A,,2 A,,- A,,2- | A,, A,,2 A,,- A,,2- | A,, A,,2 A,,- A,,2- | %102
 A,, A,,2 A,,[I:staff -1] e2 |[I:staff +1] x4[I:staff -1] A2- | A2 x4 | x6 | %106
[I:staff +1] A,,4 A,,2- | A,,4 A,,2- | A,,4 A,,2- | A,,2 A,,4 | (A,,E,A,G,,) F,,2 | x4 D,,2 | %112
 x4 B,,,2 | x6 | x4 G,2 | [F,A,]4 E,,2 | A,4 x2 |] %117
V:5
 x2 | x6 | x6 | x6 | x6 | x6 | x6 | x6 | x6 | x6 | x6 | x6 | x6 | x6 | x6 | x6 | x6 | x6 | x6 | %19
 x6 | x6 | x6 | x6 | x6 | x6 | x6 | x6 | x6 | x6 | x6 | x6 | x6 | x6 | x6 | x6 | x6 | x6 | x6 | %38
 x6 | x6 | x6 | x6 | x6 | x6 | x6 | x6 | x6 | x4 G,2 | x6 |: x6 | x6 | x6 | x6 | x6 | x6 | x6 | %56
 x6 :| x6 | x6 | x6 | x6 | x6 | x6 | x6 | x6 | x6 | x6 | x6 | x6 | x6 | x6 | x6 | x6 | x6 | x6 | %75
 x6 | x6 | x6 | x6 | x6 | x6 | x6 | x6 | x6 | x6 | x6 | x6 | x6 | x6 | x6 | x6 | x6 | x6 | x6 | %94
 x6 | x6 | x6 | x6 | x6 | x6 | x6 | x6 | x6 | x6 | x6 | x6 | x6 | x6 | x6 | x6 | x6 | x6 | x6 | %113
 x6 | x6 | x4 G,2 | x6 |] %117

